X: 29
T: Peek-a-Boo Waltz
C: William J. Scanlon? (1856-1898)
M: 3/4
L: 1/8
K: D
FG |\
"D"A2 f2 e2 | "G"d2 c2 B2 | "D"A2 F2 G2 | A4 FG |\
A2 f2 e2 | "E"d2 c2 d2 | "A"e3 ^d ef | e4 FG |
"D"A2 f2 e2 | "G"d2 c2 B2 | "D"A2 F2 B2 | A4 A^A |\
"G"B2 g2 f2 | "A"e2 B2 c2 | "D"d3 c de | d4 :|
|: FG |\
"D"A4 f2 | A4 A^A | "G"B4 g2 | "(Em)"B4 Bd |\
"A"c3 d c2 | "G"B3 c B2 | "D(A7)"A3 B AG | "D"F4 FG |
A4 f2 | A4 A^A | "G"B4 g2 | "E"B4 Bd |\
"A"c2 B2 A2 | g2 f2 e2 | "D"d2 A2 F2 | D4 :|


